X:700
T:Singue
A:Wyresdale, Lancashire
B:H.S.J. Jackson, 1823
L:1/8
M:6/8
O:England
Z:Richard Robinson 
%%TUNEURL: http://www.leeds.ac.uk/music/Info/RRTuneBk/gettune/00000e59.html
%%ID:00000e59
K:G
G2G G2G | G3 AGA | B2B B2B | B3 cBc |\
d3  Bcd | c3 ABc | Bdc BAG | FAG FED |
G2G G2G | G3 AGA | B2B B2B | B3 cBc | \
d3 Bcd | c3 ABc | Bed cBA | G3 G3 ||
B6 | dBc dcB | A6 | cAB cBA | \
B2d B2d | c2e c2e | def g2f | e6 ||
ggg eee | fff ddd | BBB ccc | d3 def |\
ggg eee | fff ddd | BBB ccc | d3 dcB !D.C.! |]
%page:81
